icon/gr/drive-cage.svg

<svg xmlns="http://www.w3.org/2000/svg" width="24" height="24"><path fill="none" stroke="#000" stroke-width="2" d="M1 23V2h22v21M1 8h22H1Zm0 6h22H1Zm0 6h22H1ZM4 5h12H4Zm14 0h2-2Zm0 6h2-2Zm0 6h2-2ZM4 11h12H4Zm0 6h12H4Z"/></svg>

<svg xmlns="http://www.w3.org/2000/svg" viewBox="0 0 24 24" height="1em" width="1em">
  <path fill="none" stroke="#000" stroke-width="2" d="M1,23 L1,2 L23,2 L23,23 M1,8 L23,8 L1,8 Z M1,14 L23,14 L1,14 Z M1,20 L23,20 L1,20 Z M4,5 L16,5 L4,5 Z M18,5 L20,5 L18,5 Z M18,11 L20,11 L18,11 Z M18,17 L20,17 L18,17 Z M4,11 L16,11 L4,11 Z M4,17 L16,17 L4,17 Z"/>
</svg>
